X:516
T:Lat oss lova Gud for g\aava
C:Ludvig Mathias Lindeman
O:Norway
R:Hymn
Z:Transcribed by Frank Nordberg - http://www.musicaviva.com
F:http://abc.musicaviva.com/tunes/lindeman-ludvig-mathias/lat-oss-lova-01/lat-oss-lova-01-pno2.abc
V:1 Program 1 19 up %Church organ
V:2 Program 1 19 merge down %Church organ
V:3 Program 1 19 bass up %Church organ
V:4 Program 1 19 bass merge down %Church organ
M:C
L:1/4
K:Bm
V:1
B,DFF|BBcc|dcBA/^G/|A^GF2|FA/F/EF|DE/D/CC|
V:2
F,B,CF|FF^EF|FFFF|F^EC2|DE/D/-DC|B,B,-B,A,|
V:3
D,F,C,C|B,B,B,^A,|B,=A,B,C/D/|CB,A,2|A,A,^G,A,|F,E,E,E,|
V:4
B,,B,,^A,,=A,,|^G,,D,C,F,,|B,,C,D,C,/B,,/|C,C,F,,2|D,C,/D,/E,A,,|A,,^G,,A,,A,,|
%
V:1
E F/^G/AB/A/|^GGF2|B,DFF|BBcc|dBAF/E/|DCB,2|]
V:2
B,B,EF-|F^EC2|B,B,CF|FF^EF|DDDD/C/|B,^A,F,2|]
V:3
^G,F,/E,/E,D/C/|B,B,^A,2|F,F,C,C|B,B,-B,^A,|F,G,F,=A,/G,/|F,E,D,2|]
V:4
D,D,C,B,,|C,C,F,,2|D,B,,^A,,=A,,|^G,,D,C,F,,|B,,=G,,D,,D,/E,/|F,F,,B,,2|]
W:
W:
W:  From Musica Viva - http://www.musicaviva.com
W:  the Internet center for free sheet music downloads.
